assets/icons/qvision/request_quote.svg

<svg xmlns="http://www.w3.org/2000/svg" enable-background="new 0 0 24 24" height="24" viewBox="0 0 24 24" width="24"><g><rect fill="none" height="24" width="24"/><path d="M14,2H6C4.9,2,4.01,2.9,4.01,4L4,20c0,1.1,0.89,2,1.99,2H18c1.1,0,2-0.9,2-2V8L14,2z M15,12h-4v1h3c0.55,0,1,0.45,1,1v3 c0,0.55-0.45,1-1,1h-1v1h-2v-1H9v-2h4v-1h-3c-0.55,0-1-0.45-1-1v-3c0-0.55,0.45-1,1-1h1V9h2v1h2V12z M13,8V3.5L17.5,8H13z"/></g></svg>

<svg width="24" height="24" viewBox="0 0 24 24" fill="none" xmlns="http://www.w3.org/2000/svg">
<g clip-path="url(#clip0_147_2884)">
<path d="M14 2H6C4.9 2 4.01 2.9 4.01 4L4 20C4 21.1 4.89 22 5.99 22H18C19.1 22 20 21.1 20 20V8L14 2ZM15 12H11V13H14C14.55 13 15 13.45 15 14V17C15 17.55 14.55 18 14 18H13V19H11V18H9V16H13V15H10C9.45 15 9 14.55 9 14V11C9 10.45 9.45 10 10 10H11V9H13V10H15V12ZM13 8V3.5L17.5 8H13Z" fill="#323232"/>
</g>
<defs>
<clipPath id="clip0_147_2884">
<rect width="24" height="24" fill="white"/>
</clipPath>
</defs>
</svg>
